X: 3538
T: Big John McNeil
R: reel
M: 4/4
K: Amajor
|:A,2 CE FECE|AECE FECB,|A,2 CE FECE|FECA, ~B,2 CB,|
A,2 CE FECE|AECE FECE|(3DDD F2 (3CCC E2|1 B,A,G,A, B,CDB,:|2 B,A,G,A, B,CD2||
|:eA (3AAA eAfA|eA (3AAA efga|eA (3AAA agfe|dBGB (3ddd cd|eA (3AAA eAfA|
eA (3AAA efge|1 agfe fedc|dcBA Bcd^d:|2 agfe fedc|BAGF EDCB,||

